X: 23590
T: Lilies In The Field, The
R: reel
M: 4/4
K: Dmajor
Addc A2AB|BAcd efdB|AFdB A2Bd|cAGE FDD2|
Addc A2AB|BAcd efdB|AFDB A2Bd|cAGE FDD2||
d2fd Adfd|B/c/d ef gece|d2fd Adfd|eaag fdd2|
dgfd Adfd|B/c/d ef g2fg|afge d2cd|eaag fdd2||

